assets/svg/action_wallet_autherror.svg

<svg width="80" height="80" viewBox="0 0 80 80" fill="none" xmlns="http://www.w3.org/2000/svg">
<path d="M39.9995 65.1161C53.871 65.1161 65.1161 53.871 65.1161 39.9995C65.1161 26.1279 53.871 14.8828 39.9995 14.8828C26.1279 14.8828 14.8828 26.1279 14.8828 39.9995C14.8828 53.871 26.1279 65.1161 39.9995 65.1161Z" stroke="#9A9A9A" stroke-width="1.5" stroke-linecap="round" stroke-linejoin="round"/>
<path d="M61.2133 20.0367C61.9037 20.0367 62.4633 19.477 62.4633 18.7867C62.4633 18.0963 61.9037 17.5367 61.2133 17.5367C60.523 17.5367 59.9633 18.0963 59.9633 18.7867C59.9633 19.477 60.523 20.0367 61.2133 20.0367Z" fill="#E1EAF8"/>
<path d="M61.2133 20.0367C61.9037 20.0367 62.4633 19.477 62.4633 18.7867C62.4633 18.0963 61.9037 17.5367 61.2133 17.5367C60.523 17.5367 59.9633 18.0963 59.9633 18.7867C59.9633 19.477 60.523 20.0367 61.2133 20.0367Z" fill="#E1EAF8"/>
<path d="M70 41.25C70.6904 41.25 71.25 40.6904 71.25 40C71.25 39.3096 70.6904 38.75 70 38.75C69.3096 38.75 68.75 39.3096 68.75 40C68.75 40.6904 69.3096 41.25 70 41.25Z" fill="#E1EAF8"/>
<path d="M70 41.25C70.6904 41.25 71.25 40.6904 71.25 40C71.25 39.3096 70.6904 38.75 70 38.75C69.3096 38.75 68.75 39.3096 68.75 40C68.75 40.6904 69.3096 41.25 70 41.25Z" fill="#E1EAF8"/>
<path d="M40 71.25C40.6904 71.25 41.25 70.6904 41.25 70C41.25 69.3096 40.6904 68.75 40 68.75C39.3096 68.75 38.75 69.3096 38.75 70C38.75 70.6904 39.3096 71.25 40 71.25Z" fill="#E1EAF8"/>
<path d="M40 71.25C40.6904 71.25 41.25 70.6904 41.25 70C41.25 69.3096 40.6904 68.75 40 68.75C39.3096 68.75 38.75 69.3096 38.75 70C38.75 70.6904 39.3096 71.25 40 71.25Z" fill="#E1EAF8"/>
<path d="M18.7867 62.4633C19.477 62.4633 20.0367 61.9037 20.0367 61.2133C20.0367 60.523 19.477 59.9633 18.7867 59.9633C18.0963 59.9633 17.5367 60.523 17.5367 61.2133C17.5367 61.9037 18.0963 62.4633 18.7867 62.4633Z" fill="#E1EAF8"/>
<path d="M18.7867 62.4633C19.477 62.4633 20.0367 61.9037 20.0367 61.2133C20.0367 60.523 19.477 59.9633 18.7867 59.9633C18.0963 59.9633 17.5367 60.523 17.5367 61.2133C17.5367 61.9037 18.0963 62.4633 18.7867 62.4633Z" fill="#E1EAF8"/>
<path d="M10 41.25C10.6904 41.25 11.25 40.6904 11.25 40C11.25 39.3096 10.6904 38.75 10 38.75C9.30964 38.75 8.75 39.3096 8.75 40C8.75 40.6904 9.30964 41.25 10 41.25Z" fill="#E1EAF8"/>
<path d="M10 41.25C10.6904 41.25 11.25 40.6904 11.25 40C11.25 39.3096 10.6904 38.75 10 38.75C9.30964 38.75 8.75 39.3096 8.75 40C8.75 40.6904 9.30964 41.25 10 41.25Z" fill="#E1EAF8"/>
<path d="M18.7867 20.0367C19.477 20.0367 20.0367 19.477 20.0367 18.7867C20.0367 18.0963 19.477 17.5367 18.7867 17.5367C18.0963 17.5367 17.5367 18.0963 17.5367 18.7867C17.5367 19.477 18.0963 20.0367 18.7867 20.0367Z" fill="#E1EAF8"/>
<path d="M18.7867 20.0367C19.477 20.0367 20.0367 19.477 20.0367 18.7867C20.0367 18.0963 19.477 17.5367 18.7867 17.5367C18.0963 17.5367 17.5367 18.0963 17.5367 18.7867C17.5367 19.477 18.0963 20.0367 18.7867 20.0367Z" fill="#E1EAF8"/>
<path d="M40 11.25C40.6904 11.25 41.25 10.6904 41.25 10C41.25 9.30964 40.6904 8.75 40 8.75C39.3096 8.75 38.75 9.30964 38.75 10C38.75 10.6904 39.3096 11.25 40 11.25Z" fill="#E1EAF8"/>
<path d="M40 11.25C40.6904 11.25 41.25 10.6904 41.25 10C41.25 9.30964 40.6904 8.75 40 8.75C39.3096 8.75 38.75 9.30964 38.75 10C38.75 10.6904 39.3096 11.25 40 11.25Z" fill="#E1EAF8"/>
<path fill-rule="evenodd" clip-rule="evenodd" d="M4.91602 39.9993C4.91602 20.6234 20.6234 4.91602 39.9993 4.91602C59.3753 4.91602 75.0827 20.6234 75.0827 39.9993C75.0827 45.5414 73.7976 50.7834 71.5092 55.4434C72.0021 55.5707 72.4845 55.7241 72.9548 55.902C75.2795 51.0934 76.5827 45.6985 76.5827 39.9993C76.5827 19.7949 60.2038 3.41602 39.9993 3.41602C19.7949 3.41602 3.41602 19.7949 3.41602 39.9993C3.41602 60.2038 19.7949 76.5827 39.9993 76.5827C45.2425 76.5827 50.228 75.4797 54.7366 73.493C54.5754 73.0171 54.4391 72.5296 54.3293 72.0322C49.954 73.9925 45.104 75.0827 39.9993 75.0827C20.6234 75.0827 4.91602 59.3753 4.91602 39.9993Z" fill="#9A9A9A"/>
<path d="M68 56C61.3719 56 56 61.3732 56 68C56 74.6281 61.3732 80 68 80C74.6281 80 80 74.6268 80 68C80 61.3719 74.6281 56 68 56ZM74.6629 73.3848C74.8322 73.5544 74.9273 73.7843 74.9273 74.0239C74.9273 74.2635 74.8322 74.4933 74.6629 74.6629C74.4861 74.8398 74.255 74.9276 74.0239 74.9276C73.7928 74.9276 73.5617 74.8398 73.3848 74.6629L68 69.2781L62.6152 74.6629C62.4383 74.8398 62.2072 74.9276 61.9761 74.9276C61.745 74.9276 61.5139 74.8398 61.3371 74.6629C61.1678 74.4933 61.0727 74.2635 61.0727 74.0239C61.0727 73.7843 61.1678 73.5544 61.3371 73.3848L66.7219 68L61.3371 62.6152C60.9846 62.2627 60.9846 61.6895 61.3371 61.3371C61.6895 60.9846 62.2627 60.9846 62.6152 61.3371L68 66.7219L73.3848 61.3371C73.7373 60.9846 74.3105 60.9846 74.6629 61.3371C75.0154 61.6895 75.0154 62.2627 74.6629 62.6152L69.2781 68L74.6629 73.3848Z" fill="#FD4E4E"/>
<path d="M34.4673 34.6673C34.4673 34.1887 34.0793 33.8007 33.6007 33.8007C33.122 33.8007 32.734 34.1887 32.734 34.6673H34.4673ZM32.734 45.334C32.734 45.8126 33.122 46.2007 33.6007 46.2007C34.0793 46.2007 34.4673 45.8126 34.4673 45.334H32.734ZM44.1878 36.7212C43.8494 37.0596 43.8494 37.6084 44.1878 37.9468C44.5263 38.2853 45.075 38.2853 45.4135 37.9468L44.1878 36.7212ZM47.0135 36.3468C47.3519 36.0084 47.3519 35.4596 47.0135 35.1212C46.675 34.7827 46.1263 34.7827 45.7878 35.1212L47.0135 36.3468ZM37.2545 43.6545C36.916 43.9929 36.916 44.5417 37.2545 44.8801C37.5929 45.2186 38.1417 45.2186 38.4801 44.8801L37.2545 43.6545ZM40.0801 43.2801C40.4186 42.9417 40.4186 42.3929 40.0801 42.0545C39.7417 41.716 39.1929 41.716 38.8545 42.0545L40.0801 43.2801ZM38.8545 37.9468C39.1929 38.2853 39.7417 38.2853 40.0801 37.9468C40.4186 37.6084 40.4186 37.0596 40.0801 36.7212L38.8545 37.9468ZM38.4801 35.1212C38.1417 34.7827 37.5929 34.7827 37.2545 35.1212C36.916 35.4596 36.916 36.0084 37.2545 36.3468L38.4801 35.1212ZM45.7878 44.8801C46.1263 45.2186 46.675 45.2186 47.0135 44.8801C47.3519 44.5417 47.3519 43.9929 47.0135 43.6545L45.7878 44.8801ZM45.4135 42.0545C45.075 41.716 44.5263 41.716 44.1878 42.0545C43.8494 42.3929 43.8494 42.9417 44.1878 43.2801L45.4135 42.0545ZM40.0007 49.8007C37.462 49.8007 35.6452 49.7988 34.264 49.6131C32.9078 49.4308 32.1021 49.0856 31.5089 48.4924L30.2833 49.718C31.2522 50.687 32.4846 51.1228 34.0331 51.331C35.5566 51.5358 37.511 51.534 40.0007 51.534V49.8007ZM28.4673 40.0007C28.4673 42.4903 28.4655 44.4447 28.6703 45.9682C28.8785 47.5167 29.3143 48.7491 30.2833 49.718L31.5089 48.4924C30.9157 47.8992 30.5705 47.0935 30.3882 45.7373C30.2025 44.3561 30.2007 42.5393 30.2007 40.0007H28.4673ZM49.8007 40.0007C49.8007 42.5393 49.7988 44.3561 49.6131 45.7373C49.4308 47.0935 49.0856 47.8992 48.4924 48.4924L49.718 49.718C50.687 48.7491 51.1228 47.5167 51.331 45.9682C51.5358 44.4447 51.534 42.4903 51.534 40.0007H49.8007ZM40.0007 51.534C42.4903 51.534 44.4447 51.5358 45.9682 51.331C47.5167 51.1228 48.7491 50.687 49.718 49.718L48.4924 48.4924C47.8992 49.0856 47.0935 49.4308 45.7373 49.6131C44.3561 49.7988 42.5393 49.8007 40.0007 49.8007V51.534ZM40.0007 30.2007C42.5393 30.2007 44.3561 30.2025 45.7373 30.3882C47.0935 30.5705 47.8992 30.9157 48.4924 31.5089L49.718 30.2833C48.7491 29.3143 47.5167 28.8785 45.9682 28.6703C44.4447 28.4655 42.4903 28.4673 40.0007 28.4673V30.2007ZM51.534 40.0007C51.534 37.511 51.5358 35.5566 51.331 34.0331C51.1228 32.4846 50.687 31.2522 49.718 30.2833L48.4924 31.5089C49.0856 32.1021 49.4308 32.9078 49.6131 34.264C49.7988 35.6452 49.8007 37.462 49.8007 40.0007H51.534ZM40.0007 28.4673C37.511 28.4673 35.5566 28.4655 34.0331 28.6703C32.4846 28.8785 31.2522 29.3143 30.2833 30.2833L31.5089 31.5089C32.1021 30.9157 32.9078 30.5705 34.264 30.3882C35.6452 30.2025 37.462 30.2007 40.0007 30.2007V28.4673ZM30.2007 40.0007C30.2007 37.462 30.2025 35.6452 30.3882 34.264C30.5705 32.9078 30.9157 32.1021 31.5089 31.5089L30.2833 30.2833C29.3143 31.2522 28.8785 32.4846 28.6703 34.0331C28.4655 35.5566 28.4673 37.511 28.4673 40.0007H30.2007ZM32.734 34.6673L32.734 45.334H34.4673L34.4673 34.6673H32.734ZM42.134 42.334C40.8453 42.334 39.8007 41.2893 39.8007 40.0007H38.0673C38.0673 42.2466 39.888 44.0673 42.134 44.0673V42.334ZM44.4673 40.0007C44.4673 41.2893 43.4226 42.334 42.134 42.334V44.0673C44.3799 44.0673 46.2007 42.2466 46.2007 40.0007H44.4673ZM42.134 37.6673C43.4226 37.6673 44.4673 38.712 44.4673 40.0007H46.2007C46.2007 37.7547 44.3799 35.934 42.134 35.934V37.6673ZM42.134 35.934C39.888 35.934 38.0673 37.7547 38.0673 40.0007H39.8007C39.8007 38.712 40.8453 37.6673 42.134 37.6673V35.934ZM45.4135 37.9468L47.0135 36.3468L45.7878 35.1212L44.1878 36.7212L45.4135 37.9468ZM38.4801 44.8801L40.0801 43.2801L38.8545 42.0545L37.2545 43.6545L38.4801 44.8801ZM40.0801 36.7212L38.4801 35.1212L37.2545 36.3468L38.8545 37.9468L40.0801 36.7212ZM47.0135 43.6545L45.4135 42.0545L44.1878 43.2801L45.7878 44.8801L47.0135 43.6545Z" fill="#9A9A9A"/>
</svg>

<svg xmlns="http://www.w3.org/2000/svg" width="80" height="80" fill="none"><path stroke="#9A9A9A" stroke-linecap="round" stroke-linejoin="round" stroke-width="1.5" d="M40 65.116c13.871 0 25.116-11.245 25.116-25.117 0-13.871-11.245-25.116-25.117-25.116-13.871 0-25.116 11.245-25.116 25.117 0 13.871 11.245 25.116 25.117 25.116"/><path fill="#E1EAF8" d="M61.213 20.037a1.25 1.25 0 1 0 0-2.5 1.25 1.25 0 0 0 0 2.5"/><path fill="#E1EAF8" d="M61.213 20.037a1.25 1.25 0 1 0 0-2.5 1.25 1.25 0 0 0 0 2.5M70 41.25a1.25 1.25 0 1 0 0-2.5 1.25 1.25 0 0 0 0 2.5"/><path fill="#E1EAF8" d="M70 41.25a1.25 1.25 0 1 0 0-2.5 1.25 1.25 0 0 0 0 2.5M40 71.25a1.25 1.25 0 1 0 0-2.5 1.25 1.25 0 0 0 0 2.5"/><path fill="#E1EAF8" d="M40 71.25a1.25 1.25 0 1 0 0-2.5 1.25 1.25 0 0 0 0 2.5M18.787 62.463a1.25 1.25 0 1 0 0-2.5 1.25 1.25 0 0 0 0 2.5"/><path fill="#E1EAF8" d="M18.787 62.463a1.25 1.25 0 1 0 0-2.5 1.25 1.25 0 0 0 0 2.5M10 41.25a1.25 1.25 0 1 0 0-2.5 1.25 1.25 0 0 0 0 2.5"/><path fill="#E1EAF8" d="M10 41.25a1.25 1.25 0 1 0 0-2.5 1.25 1.25 0 0 0 0 2.5M18.787 20.037a1.25 1.25 0 1 0 0-2.5 1.25 1.25 0 0 0 0 2.5"/><path fill="#E1EAF8" d="M18.787 20.037a1.25 1.25 0 1 0 0-2.5 1.25 1.25 0 0 0 0 2.5M40 11.25a1.25 1.25 0 1 0 0-2.5 1.25 1.25 0 0 0 0 2.5"/><path fill="#E1EAF8" d="M40 11.25a1.25 1.25 0 1 0 0-2.5 1.25 1.25 0 0 0 0 2.5"/><path fill="#9A9A9A" fill-rule="evenodd" d="M4.916 40c0-19.377 15.707-35.084 35.083-35.084s35.084 15.707 35.084 35.083a34.94 34.94 0 0 1-3.574 15.444q.74.192 1.446.459a36.4 36.4 0 0 0 3.628-15.903c0-20.204-16.38-36.583-36.584-36.583S3.416 19.795 3.416 39.999c0 20.205 16.379 36.584 36.583 36.584a36.5 36.5 0 0 0 14.738-3.09 14 14 0 0 1-.408-1.46A35 35 0 0 1 40 75.082c-19.376 0-35.083-15.708-35.083-35.084" clip-rule="evenodd"/><path fill="#FD4E4E" d="M68 56c-6.628 0-12 5.373-12 12 0 6.628 5.373 12 12 12 6.628 0 12-5.373 12-12 0-6.628-5.372-12-12-12m6.663 17.385a.905.905 0 0 1-1.278 1.278L68 69.278l-5.385 5.385a.9.9 0 0 1-1.278 0 .904.904 0 0 1 0-1.278L66.722 68l-5.385-5.385a.905.905 0 0 1 1.278-1.278L68 66.722l5.385-5.385a.905.905 0 0 1 1.278 1.278L69.278 68z"/><path fill="#9A9A9A" d="M34.467 34.667a.867.867 0 0 0-1.733 0zm-1.733 10.667a.867.867 0 0 0 1.733 0zm11.454-8.613a.867.867 0 0 0 1.225 1.226zm2.825-.374a.867.867 0 0 0-1.225-1.226zm-9.758 7.307a.867.867 0 1 0 1.225 1.226zm2.825-.374a.867.867 0 1 0-1.225-1.226zm-1.225-5.333a.867.867 0 1 0 1.225-1.226zm-.375-2.826a.867.867 0 1 0-1.225 1.226zm7.308 9.76a.867.867 0 1 0 1.226-1.227zm-.374-2.827a.867.867 0 1 0-1.226 1.226zM40 49.802c-2.539 0-4.356-.002-5.737-.188-1.356-.182-2.162-.527-2.755-1.12l-1.226 1.225c.97.969 2.202 1.405 3.75 1.613 1.524.205 3.478.203 5.968.203zM28.467 40c0 2.49-.002 4.444.203 5.967.208 1.549.644 2.781 1.613 3.75l1.226-1.226c-.593-.593-.939-1.398-1.12-2.755-.186-1.38-.188-3.198-.188-5.736zm21.334 0c0 2.538-.002 4.355-.188 5.736-.182 1.356-.527 2.162-1.12 2.755l1.225 1.226c.969-.969 1.405-2.201 1.613-3.75.205-1.523.203-3.478.203-5.967zM40 51.534c2.49 0 4.444.002 5.967-.203 1.549-.208 2.781-.644 3.75-1.613l-1.226-1.226c-.593.594-1.398.939-2.755 1.121-1.38.186-3.198.188-5.736.188zm0-21.333c2.538 0 4.355.002 5.736.187 1.356.182 2.162.528 2.755 1.12l1.226-1.225c-.969-.969-2.201-1.405-3.75-1.613-1.523-.205-3.478-.203-5.967-.203zM51.534 40c0-2.49.002-4.444-.203-5.968-.208-1.548-.644-2.78-1.613-3.75l-1.226 1.226c.594.593.939 1.399 1.121 2.755.186 1.381.188 3.198.188 5.737zM40.001 28.467c-2.49 0-4.444-.002-5.968.203-1.548.208-2.78.644-3.75 1.613l1.226 1.226c.593-.593 1.399-.939 2.755-1.12 1.381-.186 3.198-.188 5.737-.188zm-9.8 11.534c0-2.539.002-4.356.187-5.737.182-1.356.528-2.162 1.12-2.755l-1.225-1.226c-.969.97-1.405 2.202-1.613 3.75-.205 1.524-.203 3.478-.203 5.968zm2.533-5.334v10.667h1.733V34.667zm9.4 7.667a2.333 2.333 0 0 1-2.333-2.333h-1.734a4.067 4.067 0 0 0 4.067 4.066zm2.333-2.333a2.333 2.333 0 0 1-2.333 2.333v1.733a4.067 4.067 0 0 0 4.067-4.066zm-2.333-2.334a2.333 2.333 0 0 1 2.333 2.334h1.734a4.067 4.067 0 0 0-4.067-4.067zm0-1.733a4.067 4.067 0 0 0-4.067 4.067h1.734a2.333 2.333 0 0 1 2.333-2.334zm3.28 2.013 1.6-1.6-1.226-1.226-1.6 1.6zM38.48 44.88l1.6-1.6-1.225-1.226-1.6 1.6zm1.6-8.159-1.6-1.6-1.225 1.226 1.6 1.6zm6.934 6.934-1.6-1.6-1.226 1.225 1.6 1.6z"/></svg>
